Numix-Light/16/status/indicator-keyboard-Cs-1.svg

<?xml version="1.0" encoding="UTF-8" standalone="no"?>
<svg
   xmlns:dc="http://purl.org/dc/elements/1.1/"
   xmlns:cc="http://creativecommons.org/ns#"
   xmlns:rdf="http://www.w3.org/1999/02/22-rdf-syntax-ns#"
   xmlns:svg="http://www.w3.org/2000/svg"
   xmlns="http://www.w3.org/2000/svg"
   xmlns:sodipodi="http://sodipodi.sourceforge.net/DTD/sodipodi-0.dtd"
   xmlns:inkscape="http://www.inkscape.org/namespaces/inkscape"
   viewBox="0 0 16 16"
   id="svg2"
   version="1.1"
   inkscape:version="0.91 r13725"
   sodipodi:docname="indicator-keyboard-Cs-1.svg">
  <metadata
     id="metadata14">
    <rdf:RDF>
      <cc:Work
         rdf:about="">
        <dc:format>image/svg+xml</dc:format>
        <dc:type
           rdf:resource="http://purl.org/dc/dcmitype/StillImage" />
      </cc:Work>
    </rdf:RDF>
  </metadata>
  <defs
     id="defs12" />
  <sodipodi:namedview
     pagecolor="#ffffff"
     bordercolor="#666666"
     borderopacity="1"
     objecttolerance="10"
     gridtolerance="10"
     guidetolerance="10"
     inkscape:pageopacity="0"
     inkscape:pageshadow="2"
     inkscape:window-width="640"
     inkscape:window-height="480"
     id="namedview10"
     showgrid="false"
     inkscape:zoom="14.75"
     inkscape:cx="8"
     inkscape:cy="8"
     inkscape:window-x="65"
     inkscape:window-y="24"
     inkscape:window-maximized="0"
     inkscape:current-layer="svg2" />
  <path
     style="fill:#353535;fill-opacity:1"
     d="M 1.5996094 0 C 0.71320937 2.9605947e-16 0 0.71320937 0 1.5996094 L 0 14.400391 C 2.9605947e-16 15.286791 0.71320937 16 1.5996094 16 L 14.400391 16 C 15.286791 16 16 15.286791 16 14.400391 L 16 1.5996094 C 16 0.71320937 15.286791 0 14.400391 0 L 1.5996094 0 z M 5.4589844 4.7246094 C 5.6929844 4.7246094 5.9056562 4.7395312 6.0976562 4.7695312 C 6.2896563 4.7995313 6.4575625 4.8387187 6.6015625 4.8867188 C 6.7455625 4.9287188 6.8687031 4.9734844 6.9707031 5.0214844 C 7.0727031 5.0634844 7.1510781 5.1026719 7.2050781 5.1386719 L 7.0078125 5.6699219 C 6.8578125 5.5799219 6.6656406 5.4922031 6.4316406 5.4082031 C 6.2036406 5.3182031 5.9181719 5.2734375 5.5761719 5.2734375 C 5.1861719 5.2734375 4.8447812 5.3387031 4.5507812 5.4707031 C 4.2627813 5.6027031 4.0202656 5.7892969 3.8222656 6.0292969 C 3.6242656 6.2692969 3.4730937 6.5547656 3.3710938 6.8847656 C 3.2750937 7.2147656 3.2265625 7.5804219 3.2265625 7.9824219 C 3.2265625 8.3964219 3.2750937 8.7714219 3.3710938 9.1074219 C 3.4730937 9.4374219 3.6205 9.719125 3.8125 9.953125 C 4.0045 10.187125 4.2376719 10.366188 4.5136719 10.492188 C 4.7956719 10.618187 5.1165625 10.681641 5.4765625 10.681641 C 5.8725625 10.681641 6.2027969 10.646219 6.4667969 10.574219 C 6.7367969 10.496219 6.9420781 10.417844 7.0800781 10.339844 L 7.25 10.861328 C 7.208 10.891328 7.1371563 10.928703 7.0351562 10.970703 C 6.9331562 11.006703 6.8044375 11.045891 6.6484375 11.087891 C 6.4924375 11.129891 6.3114219 11.161547 6.1074219 11.185547 C 5.9034219 11.215547 5.6758281 11.230469 5.4238281 11.230469 C 5.0218281 11.230469 4.6468281 11.159625 4.2988281 11.015625 C 3.9568281 10.871625 3.6564375 10.660766 3.3984375 10.384766 C 3.1464375 10.108765 2.9449219 9.7691875 2.7949219 9.3671875 C 2.6509219 8.9591875 2.5800781 8.4946562 2.5800781 7.9726562 C 2.5800781 7.4506563 2.6584531 6.9898906 2.8144531 6.5878906 C 2.9764531 6.1798906 3.189125 5.8365469 3.453125 5.5605469 C 3.717125 5.2845469 4.0230937 5.0774531 4.3710938 4.9394531 C 4.7190938 4.7954531 5.0809844 4.7246094 5.4589844 4.7246094 z M 9.5390625 6.3359375 C 9.8570625 6.3359375 10.118266 6.3620156 10.322266 6.4160156 C 10.532266 6.4700156 10.679672 6.5185469 10.763672 6.5605469 L 10.628906 7.0820312 C 10.556906 7.0460313 10.433766 6.9975 10.259766 6.9375 C 10.091766 6.8775 9.8436719 6.8476563 9.5136719 6.8476562 C 9.3816719 6.8476562 9.2547656 6.8625781 9.1347656 6.8925781 C 9.0207656 6.9165781 8.918125 6.9595312 8.828125 7.0195312 C 8.738125 7.0735313 8.6672813 7.144375 8.6132812 7.234375 C 8.5592812 7.318375 8.53125 7.4247812 8.53125 7.5507812 C 8.53125 7.6767813 8.5555156 7.7830469 8.6035156 7.8730469 C 8.6515156 7.9630469 8.7205469 8.0451875 8.8105469 8.1171875 C 8.9065469 8.1831875 9.0203438 8.2466406 9.1523438 8.3066406 C 9.2903437 8.3666406 9.4470938 8.4319063 9.6210938 8.5039062 C 9.8010937 8.5759062 9.9727656 8.6505156 10.134766 8.7285156 C 10.302766 8.8005156 10.448219 8.8900469 10.574219 8.9980469 C 10.700219 9.1000469 10.802859 9.2269531 10.880859 9.3769531 C 10.958859 9.5209531 10.998047 9.7037812 10.998047 9.9257812 C 10.998047 10.345781 10.839484 10.664859 10.521484 10.880859 C 10.209484 11.096859 9.780375 11.203125 9.234375 11.203125 C 8.826375 11.203125 8.5148281 11.167703 8.2988281 11.095703 C 8.0828281 11.029703 7.9372344 10.979359 7.8652344 10.943359 L 8.0195312 10.412109 C 8.0375313 10.424109 8.0767187 10.444609 8.1367188 10.474609 C 8.1967187 10.498609 8.2769063 10.528453 8.3789062 10.564453 C 8.4809062 10.594453 8.6002813 10.622484 8.7382812 10.646484 C 8.8822812 10.670484 9.048375 10.681641 9.234375 10.681641 C 9.570375 10.681641 9.8465 10.627531 10.0625 10.519531 C 10.2845 10.405531 10.394531 10.217125 10.394531 9.953125 C 10.394531 9.827125 10.374031 9.7189062 10.332031 9.6289062 C 10.296031 9.5389062 10.232578 9.4587188 10.142578 9.3867188 C 10.052578 9.3147188 9.9332031 9.2456875 9.7832031 9.1796875 C 9.6392031 9.1136875 9.4581875 9.0353125 9.2421875 8.9453125 C 9.0681875 8.8733125 8.9040469 8.8005156 8.7480469 8.7285156 C 8.5920469 8.6505156 8.4539844 8.56475 8.3339844 8.46875 C 8.2139844 8.36675 8.1169219 8.2454219 8.0449219 8.1074219 C 7.9729219 7.9694219 7.9375 7.8015156 7.9375 7.6035156 C 7.9375 7.2255156 8.0793281 6.9195469 8.3613281 6.6855469 C 8.6493281 6.4515469 9.0410625 6.3359375 9.5390625 6.3359375 z M 13.152344 8.8417969 L 13.419922 8.8417969 L 13.419922 12.896484 L 13.041016 12.896484 L 13.041016 9.421875 C 12.998116 9.468675 12.941294 9.5157063 12.871094 9.5664062 C 12.804794 9.6171063 12.728378 9.66805 12.642578 9.71875 C 12.556778 9.76555 12.466647 9.812575 12.373047 9.859375 C 12.279447 9.902275 12.185397 9.9375437 12.091797 9.9648438 L 11.980469 9.671875 C 12.214469 9.5899751 12.424122 9.4880813 12.607422 9.3632812 C 12.790722 9.2345813 12.972944 9.0601969 13.152344 8.8417969 z "
     id="path4" />
</svg>

<svg xmlns="http://www.w3.org/2000/svg" viewBox="0 0 16 16">
 <path d="m 1.6 0 c -0.886 0 -1.6 0.713 -1.6 1.6 l 0 12.801 c 0 0.886 0.713 1.6 1.6 1.6 l 12.801 0 c 0.886 0 1.6 -0.713 1.6 -1.6 l 0 -12.801 c 0 -0.886 -0.713 -1.6 -1.6 -1.6 l -12.801 0 z m 3.859 4.725 c 0.234 0 0.447 0.015 0.639 0.045 c 0.192 0.03 0.36 0.069 0.504 0.117 c 0.144 0.042 0.267 0.087 0.369 0.135 c 0.102 0.042 0.18 0.081 0.234 0.117 l -0.197 0.531 c -0.15 -0.09 -0.342 -0.178 -0.576 -0.262 c -0.228 -0.09 -0.513 -0.135 -0.855 -0.135 c -0.39 0 -0.731 0.065 -1.025 0.197 c -0.288 0.132 -0.531 0.319 -0.729 0.559 c -0.198 0.24 -0.349 0.525 -0.451 0.855 c -0.096 0.33 -0.145 0.696 -0.145 1.098 c 0 0.414 0.049 0.789 0.145 1.125 c 0.102 0.33 0.249 0.612 0.441 0.846 c 0.192 0.234 0.425 0.413 0.701 0.539 c 0.282 0.126 0.603 0.189 0.963 0.189 c 0.396 0 0.726 -0.035 0.99 -0.107 c 0.27 -0.078 0.475 -0.156 0.613 -0.234 l 0.17 0.521 c -0.042 0.03 -0.113 0.067 -0.215 0.109 c -0.102 0.036 -0.231 0.075 -0.387 0.117 c -0.156 0.042 -0.337 0.074 -0.541 0.098 c -0.204 0.03 -0.432 0.045 -0.684 0.045 c -0.402 0 -0.777 -0.071 -1.125 -0.215 c -0.342 -0.144 -0.642 -0.355 -0.9 -0.631 c -0.252 -0.276 -0.454 -0.616 -0.604 -1.018 c -0.144 -0.408 -0.215 -0.873 -0.215 -1.395 c 0 -0.522 0.078 -0.983 0.234 -1.385 c 0.162 -0.408 0.375 -0.751 0.639 -1.027 c 0.264 -0.276 0.57 -0.483 0.918 -0.621 c 0.348 -0.144 0.71 -0.215 1.088 -0.215 z m 4.08 1.611 c 0.318 0 0.579 0.026 0.783 0.08 c 0.21 0.054 0.357 0.103 0.441 0.145 l -0.135 0.521 c -0.072 -0.036 -0.195 -0.085 -0.369 -0.145 c -0.168 -0.06 -0.416 -0.09 -0.746 -0.09 c -0.132 0 -0.259 0.015 -0.379 0.045 c -0.114 0.024 -0.217 0.067 -0.307 0.127 c -0.09 0.054 -0.161 0.125 -0.215 0.215 c -0.054 0.084 -0.082 0.19 -0.082 0.316 c 0 0.126 0.024 0.232 0.072 0.322 c 0.048 0.09 0.117 0.172 0.207 0.244 c 0.096 0.066 0.21 0.129 0.342 0.189 c 0.138 0.06 0.295 0.125 0.469 0.197 c 0.18 0.072 0.352 0.147 0.514 0.225 c 0.168 0.072 0.313 0.162 0.439 0.27 c 0.126 0.102 0.229 0.229 0.307 0.379 c 0.078 0.144 0.117 0.327 0.117 0.549 c 0 0.42 -0.159 0.739 -0.477 0.955 c -0.312 0.216 -0.741 0.322 -1.287 0.322 c -0.408 0 -0.72 -0.035 -0.936 -0.107 c -0.216 -0.066 -0.362 -0.116 -0.434 -0.152 l 0.154 -0.531 c 0.018 0.012 0.057 0.033 0.117 0.063 c 0.06 0.024 0.14 0.054 0.242 0.09 c 0.102 0.03 0.221 0.058 0.359 0.082 c 0.144 0.024 0.31 0.035 0.496 0.035 c 0.336 0 0.612 -0.054 0.828 -0.162 c 0.222 -0.114 0.332 -0.302 0.332 -0.566 c 0 -0.126 -0.021 -0.234 -0.063 -0.324 c -0.036 -0.09 -0.099 -0.17 -0.189 -0.242 c -0.09 -0.072 -0.209 -0.141 -0.359 -0.207 c -0.144 -0.066 -0.325 -0.144 -0.541 -0.234 c -0.174 -0.072 -0.338 -0.145 -0.494 -0.217 c -0.156 -0.078 -0.294 -0.164 -0.414 -0.26 c -0.12 -0.102 -0.217 -0.223 -0.289 -0.361 c -0.072 -0.138 -0.107 -0.306 -0.107 -0.504 c 0 -0.378 0.142 -0.684 0.424 -0.918 c 0.288 -0.234 0.68 -0.35 1.178 -0.35 z m 3.613 2.506 l 0.268 0 l 0 4.055 l -0.379 0 l 0 -3.475 c -0.043 0.047 -0.1 0.094 -0.17 0.145 c -0.066 0.051 -0.143 0.102 -0.229 0.152 c -0.086 0.047 -0.176 0.094 -0.27 0.141 c -0.094 0.043 -0.188 0.078 -0.281 0.105 l -0.111 -0.293 c 0.234 -0.082 0.444 -0.184 0.627 -0.309 c 0.183 -0.129 0.366 -0.303 0.545 -0.521 z" style="fill:#353535;fill-opacity:1"/>
</svg>
